!!!ONB: MCCC : IFL0000_00 : Extracted Monophonic Melody
!!!COM: Liszt, Franz
!!!OTL: Aus der Ungarischen Krönungsmesse
!!!SCT: S.381 ; LW.D10 ; S.678
!!!ODT: 1869///
**kern
*staff1
*clefG2
*k[f#c#g#d#a#]
*B:
*M4/4
4B
4G#
8.B
16e
=8
4.e
8g#
4f#
4a
=9
4g#
2b
4a
=10
4.g#[
16g#]
16f#
4.f#[
16f#]
16e
=11
1e
=12
4r
4e
4B
8.d#
16g#
=13
4.g#
8b
4a#
4cc#
=14
4b
2dd#
4cc#
=15
4.b[
16b]
16a#
4.a#[
16a#]
16g#
=16
1g#
=17
4r
4b
4a
4b
=18
4.cc#
8dd#
2ee[
=19
4ee]
4dd#
4.cc#
8dd#
=20
2.cc#
4b
=21
4b
4g#
4f#
4g#
=22
4.a
8b
2cc#[
=23
4cc#]
4b
4.a
8b
=24
2.a
4g#
=25
2a
4g#
4r
=26
2r
4d#
4r
=27
4e
4r
4f#
4g#
=28
4a
4a#
4b[
8b]
8b#
=29
4b#
4cc#
8cc#
8dd#
8ee
8ff#
=30
4.gg#
8ee
4cc#
4ff#
=31
8e
8cc#
4ee
4dd#
4dd#
=32
32G#
[16.e
8e]
4r
2r
=33
1r
=34
1r
=35
8r
8e
8f#
8g#
8a
8cc#
8dd#
8ff#
=36
64ee#
64gg#
16.ff#
8dd#
8ff#
8aa
8ccc#
16aa
32ccc#
32ccc#
4ccc#
=37
8bb]
8gg#
4r
2r
=38
1r
=39
8r
8c#
8d#
8e
8f#
8a
8b
8dd#
=40
64cc#
64ee
16.dd#
8b
8dd#
8ff#
8aa
8ff#
8gg#
8bb
=41
64aa
64bb
16.aa
8ff#
8.aa
16gg#
8gg#
8aa
8bb#
8ccc#
=42
8ddd#
8ccc#
8bb#
8aa
8gg#
8aa
8bb#
8ccc#
=43
8eee
8ddd#
8bb#
8aa
8gg#
8aa
8bb#
8ccc#
=44
8ddd#
8eee
8fff#
8eee
8ddd#
8eee
8.eee#
16fff#
=45
4.fff#[
16fff#]
16fff##
4.fff##[
16fff##]
16ggg#
=46
1ggg#
=47
2r
4d#
4r
=48
4e
4r
4f#
4g#
=49
4a
4a#
4b
4b#
=50
4cc#[
4cc#]
8cc#
8dd#
8ee
8ff#
=51
4.gg#
8ee
4cc#
4ff#
=52
8e
8ee
4ee
4dd#
4dd#
=53
8F##
8e
4r
4a
4dd
=54
2b#
4b
4b
=55
4.b#
8g#
4e#
4a#[
=56
8.a#]
16g#
48a#
48g#
12g#[
16g#]
16f#
48g#
48f#
12f#[
16f#]
16e#
48f##
48e#
12e#[
16e#]
16e
=57
2e
2r
=58
2r
4r
4e
=59
4.e
8g#
4f#
4f#
=60
4g#
2b
4a
=61
4.g#[
16g#]
16f#
4.f#[
16f#]
16e
=62
[4.e
16e]
16e
4e
4e
=63
32e
32e
32e
32e
32e
32e
32e
32e
32e
32e
32e
32e
32e
32e
32e
32e
32d#
32d#
32d#
32d#
32d#
32d#
32d#
32d#
32c#
32c#
32c#
32c#
32c#
32c#
32c#
32c#
=64
4e
12d#
12e
12d#
12c#
12d#
12e
12d#
12c#
12B
=65
12A
12B
12d#
12g#
12f#
12d#
12c#
12d#
12f#
12b
12a
12f#
=66
12e#
12f#
12a
12dd#
12cc#
12a
12g#
12f#
12d#
12c#
12B
12A#
=67
8.A
16B
8d#
8g#
4g#
4f#
=68
1f#
=69
1e
==
*-
